src/cmd/lc_graphicfiltersepia.svg

<svg viewBox="0 0 24 24" xmlns="http://www.w3.org/2000/svg"><path d="m4 4v1 15h1 4 2a1 1 0 0 1 -1-1 1 1 0 0 1 1-1 1 1 0 0 1 1 1 1 1 0 0 1 -1 1h4a1 1 0 0 1 -1-1 1 1 0 0 1 1-1 1 1 0 0 1 1 1 1 1 0 0 1 -1 1h4a1 .9999913 0 0 1 -1-1 1 .9999913 0 0 1 1-1 1 .9999913 0 0 1 1 1v-2-5-7-1h-15zm16 15a1 .9999913 0 0 1 -1 1h1zm-15-14h14v7 3c.0994.129063-4-4-4-4l-4 4-1-1-4.84375 4.84375-.15625.15625zm3 1c-1.108 0-2 .892-2 2s.892 2 2 2 2-.892 2-2-.892-2-2-2z" fill="#ab573d"/></svg>

<?xml version="1.0" encoding="UTF-8" standalone="no"?>
<svg
   xmlns:dc="http://purl.org/dc/elements/1.1/"
   xmlns:cc="http://creativecommons.org/ns#"
   xmlns:rdf="http://www.w3.org/1999/02/22-rdf-syntax-ns#"
   xmlns:svg="http://www.w3.org/2000/svg"
   xmlns="http://www.w3.org/2000/svg"
   xmlns:sodipodi="http://sodipodi.sourceforge.net/DTD/sodipodi-0.dtd"
   xmlns:inkscape="http://www.inkscape.org/namespaces/inkscape"
   viewBox="0 0 24 24"
   version="1.1"
   id="svg4"
   sodipodi:docname="lc_graphicfiltersepia.svg"
   inkscape:version="0.92.4 (5da689c313, 2019-01-14)">
  <metadata
     id="metadata10">
    <rdf:RDF>
      <cc:Work
         rdf:about="">
        <dc:format>image/svg+xml</dc:format>
        <dc:type
           rdf:resource="http://purl.org/dc/dcmitype/StillImage" />
      </cc:Work>
    </rdf:RDF>
  </metadata>
  <defs
     id="defs8" />
  <sodipodi:namedview
     pagecolor="#ffffff"
     bordercolor="#666666"
     borderopacity="1"
     objecttolerance="10"
     gridtolerance="10"
     guidetolerance="10"
     inkscape:pageopacity="0"
     inkscape:pageshadow="2"
     inkscape:window-width="1920"
     inkscape:window-height="1011"
     id="namedview6"
     showgrid="true"
     inkscape:zoom="27.812867"
     inkscape:cx="3.078532"
     inkscape:cy="10.577737"
     inkscape:window-x="0"
     inkscape:window-y="32"
     inkscape:window-maximized="1"
     inkscape:current-layer="svg4">
    <inkscape:grid
       type="xygrid"
       id="grid817" />
  </sodipodi:namedview>
  <path
     d="M 4,4 V 5 20 H 5 9 20 V 17 12 5 4 H 5 Z m 1,1 h 14 v 7 3 c 0.0994,0.129063 -4,-4 -4,-4 L 11,15 10,14 5.15625,18.84375 5,19 Z M 8,6 C 6.892,6 6,6.892 6,8 6,9.108 6.892,10 8,10 9.108,10 10,9.108 10,8 10,6.892 9.108,6 8,6 Z"
     id="path2"
     inkscape:connector-curvature="0"
     style="fill:#ab573d"
     sodipodi:nodetypes="ccccccccccccccccccccccssscs" />
</svg>
